svgs/duotone/square-i.svg

<svg xmlns="http://www.w3.org/2000/svg" viewBox="0 0 448 512"><!--! Font Awesome Pro 6.4.2 by @fontawesome - https://fontawesome.com License - https://fontawesome.com/license (Commercial License) Copyright 2023 Fonticons, Inc. --><path class="fa-primary" style="fill:var(--fa-primary-color,inherit);opacity:var(--fa-primary-opacity,1);" d="M128 152c0-13.3 10.7-24 24-24h72 72c13.3 0 24 10.7 24 24s-10.7 24-24 24H248V336h48c13.3 0 24 10.7 24 24s-10.7 24-24 24H152c-13.3 0-24-10.7-24-24s10.7-24 24-24h48V176H152c-13.3 0-24-10.7-24-24z"/><path class="fa-secondary" style="fill:var(--fa-secondary-color,inherit);opacity:var(--fa-secondary-opacity,.4);" d="M64 32C28.7 32 0 60.7 0 96V416c0 35.3 28.7 64 64 64H384c35.3 0 64-28.7 64-64V96c0-35.3-28.7-64-64-64H64zm88 96h72 72c13.3 0 24 10.7 24 24s-10.7 24-24 24H248V336h48c13.3 0 24 10.7 24 24s-10.7 24-24 24H152c-13.3 0-24-10.7-24-24s10.7-24 24-24h48V176H152c-13.3 0-24-10.7-24-24s10.7-24 24-24z"/></svg>

<svg xmlns="http://www.w3.org/2000/svg" viewBox="0 0 448 512"><!--! Font Awesome Pro 6.1.1 by @fontawesome - https://fontawesome.com License - https://fontawesome.com/license (Commercial License) Copyright 2022 Fonticons, Inc. --><defs><style>.fa-secondary{opacity:.4}</style></defs><path class="fa-primary" d="M296 176C309.3 176 320 165.3 320 152S309.3 128 296 128h-144C138.8 128 128 138.8 128 152S138.8 176 152 176h48v160h-48C138.8 336 128 346.8 128 360S138.8 384 152 384h144c13.25 0 24-10.75 24-24s-10.75-24-24-24h-48v-160H296z"/><path class="fa-secondary" d="M384 32H64C28.65 32 0 60.65 0 96v320c0 35.35 28.65 64 64 64h320c35.35 0 64-28.65 64-64V96C448 60.65 419.3 32 384 32zM296 336c13.25 0 24 10.75 24 24S309.3 384 296 384h-144C138.8 384 128 373.3 128 360s10.75-24 24-24h48v-160h-48C138.8 176 128 165.3 128 152S138.8 128 152 128h144C309.3 128 320 138.8 320 152S309.3 176 296 176h-48v160H296z"/></svg>
